packages/components/src/components/icon/common/ic-bank-transfer.svg

<svg width="95" height="58" viewBox="0 0 95 58" fill="none" xmlns="http://www.w3.org/2000/svg">
<path d="M22.0832 33.8851V35.6056H15.4872L14.3255 33.8851H22.0832ZM22.0832 29.8629V31.5924H12.7776L11.6159 29.8719L22.0832 29.8629ZM22.0832 25.8408V27.5614H10.0679L8.90625 25.8408H22.0832Z" fill="#999999"/>
<path fill-rule="evenodd" clip-rule="evenodd" d="M45.4745 21.8948L34.0651 16.675L22.6557 21.9081C22.324 22.0537 22.1132 22.3786 22.1195 22.7337V23.071C22.1195 23.5615 22.5262 23.9587 23.0283 23.9587H23.937V24.8952C23.9488 25.3804 24.3492 25.7714 24.8458 25.7829H25.7545V34.913H24.8458C24.3492 34.9246 23.9488 35.3156 23.937 35.8008V36.7151H23.0283C22.5262 36.7151 22.1195 37.1123 22.1195 37.6028V39.4226H46.0152V37.6028C46.0029 37.107 45.5867 36.7124 45.0792 36.7151H44.1704V35.7786C44.1582 35.2845 43.7447 34.8908 43.239 34.8908H42.3302V25.7519H43.239C43.7447 25.7519 44.1582 25.3582 44.1704 24.8642V23.9498H45.0792C45.325 23.9569 45.5631 23.8668 45.7394 23.6995C45.9157 23.5322 46.0152 23.3022 46.0152 23.0621V22.7337C46.0266 22.3728 45.8126 22.0413 45.4745 21.8948ZM37.741 25.7829H39.5812V34.8908H37.741V25.7829ZM33.1654 25.7829H34.9829V34.8908H33.1654V25.7829ZM28.5717 25.7829H30.3892V34.8908H28.5717V25.7829Z" fill="#333333"/>
<path d="M52.156 22.6907V21.6478H52.9501V17.7179H52.156V16.675H55.0852V17.7179H54.2911V21.6478H55.0852V22.6907H52.156Z" fill="#333333"/>
<path d="M56.1319 22.6907V18.166H57.4376V18.9331H57.4906C57.5729 18.6975 57.717 18.4935 57.9229 18.3212C58.1287 18.1488 58.414 18.0626 58.7787 18.0626C59.2551 18.0626 59.6139 18.2177 59.8551 18.528C60.1021 18.8383 60.2256 19.2807 60.2256 19.8552V22.6907H58.9198V19.9586C58.9198 19.6656 58.8728 19.4502 58.7787 19.3123C58.6846 19.1686 58.5169 19.0968 58.2758 19.0968C58.1699 19.0968 58.067 19.1112 57.967 19.1399C57.867 19.1629 57.7758 19.2031 57.6935 19.2606C57.617 19.318 57.5553 19.3898 57.5082 19.476C57.4612 19.5565 57.4376 19.6513 57.4376 19.7604V22.6907H56.1319Z" fill="#333333"/>
<path d="M61.8287 22.5872C62.1346 22.7251 62.511 22.7941 62.958 22.7941C63.258 22.7941 63.5285 22.7567 63.7697 22.682C64.0167 22.6074 64.2255 22.5039 64.3961 22.3718C64.5726 22.2339 64.7078 22.073 64.8019 21.8892C64.8961 21.7053 64.9431 21.5042 64.9431 21.2859C64.9431 20.5102 64.4343 20.0563 63.4168 19.9242L62.8963 19.8552C62.708 19.8265 62.5786 19.7805 62.5081 19.7173C62.4434 19.6484 62.411 19.5536 62.411 19.4329C62.411 19.318 62.4581 19.2261 62.5522 19.1571C62.6463 19.0882 62.8051 19.0537 63.0286 19.0537C63.2227 19.0537 63.4109 19.0968 63.5932 19.183C63.7815 19.2634 63.9491 19.3755 64.0961 19.5191L64.8461 18.7693C64.7284 18.6601 64.6079 18.5625 64.4843 18.4763C64.3667 18.3844 64.2344 18.3097 64.0873 18.2522C63.9462 18.189 63.7815 18.143 63.5932 18.1143C63.4109 18.0798 63.1992 18.0626 62.958 18.0626C62.6816 18.0626 62.4316 18.1 62.2081 18.1746C61.9905 18.2436 61.8022 18.3441 61.6434 18.4763C61.4905 18.6027 61.3699 18.7578 61.2817 18.9417C61.1994 19.1198 61.1582 19.318 61.1582 19.5363C61.1582 20.3407 61.6787 20.8061 62.7198 20.9325L63.2227 20.9928C63.5344 21.0331 63.6903 21.1595 63.6903 21.3721C63.6903 21.5042 63.6403 21.6105 63.5403 21.6909C63.4403 21.7656 63.2609 21.803 63.0021 21.803C62.7492 21.803 62.5228 21.7513 62.3228 21.6478C62.1228 21.5444 61.9405 21.4037 61.7758 21.2255L61.0082 21.984C61.2494 22.2425 61.5229 22.4436 61.8287 22.5872Z" fill="#333333"/>
<path d="M67.3878 22.6907C66.9349 22.6907 66.5908 22.5786 66.3556 22.3545C66.1262 22.1305 66.0115 21.803 66.0115 21.3721V19.1571H65.3586V18.166H65.685C65.8615 18.166 65.9821 18.1258 66.0468 18.0454C66.1115 17.9592 66.1438 17.8385 66.1438 17.6834V16.9422H67.3172V18.166H68.2348V19.1571H67.3172V21.6996H68.1642V22.6907H67.3878Z" fill="#333333"/>
<path fill-rule="evenodd" clip-rule="evenodd" d="M71.974 22.4752C72.1328 22.6188 72.3298 22.6907 72.5651 22.6907H73.2885V21.6996H72.8562V19.7173C72.8562 19.1772 72.6915 18.7664 72.3622 18.4849C72.0328 18.2034 71.5387 18.0626 70.8799 18.0626C70.3918 18.0626 70.0036 18.1402 69.7154 18.2953C69.433 18.4447 69.1978 18.6544 69.0095 18.9244L69.7859 19.5967C69.8859 19.4588 70.0124 19.3352 70.1653 19.2261C70.3182 19.1169 70.5241 19.0623 70.7829 19.0623C71.0593 19.0623 71.2564 19.1284 71.374 19.2606C71.4916 19.387 71.5505 19.5593 71.5505 19.7777V20.0621H70.8182C70.2065 20.0621 69.7212 20.1798 69.3624 20.4154C69.0095 20.6452 68.8331 20.9986 68.8331 21.4755C68.8331 21.8719 68.9566 22.1908 69.2036 22.4321C69.4507 22.6734 69.8065 22.7941 70.2712 22.7941C70.6241 22.7941 70.9211 22.7194 71.1623 22.57C71.4034 22.4149 71.5593 22.1908 71.6299 21.8978H71.6828C71.724 22.1391 71.821 22.3316 71.974 22.4752ZM71.3123 21.7685C71.1593 21.8604 70.974 21.9064 70.7564 21.9064C70.5623 21.9064 70.4123 21.869 70.3065 21.7944C70.2006 21.7139 70.1477 21.5904 70.1477 21.4238V21.2945C70.1477 20.9555 70.4035 20.786 70.9152 20.786H71.5505V21.3203C71.5505 21.5272 71.4711 21.6766 71.3123 21.7685Z" fill="#333333"/>
<path d="M74.1649 22.6907V18.166H75.4707V18.9331H75.5236C75.606 18.6975 75.7501 18.4935 75.9559 18.3212C76.1618 18.1488 76.4471 18.0626 76.8117 18.0626C77.2882 18.0626 77.647 18.2177 77.8881 18.528C78.1351 18.8383 78.2587 19.2807 78.2587 19.8552V22.6907H76.9529V19.9586C76.9529 19.6656 76.9058 19.4502 76.8117 19.3123C76.7176 19.1686 76.55 19.0968 76.3088 19.0968C76.203 19.0968 76.1 19.1112 76.0001 19.1399C75.9001 19.1629 75.8089 19.2031 75.7265 19.2606C75.6501 19.318 75.5883 19.3898 75.5413 19.476C75.4942 19.5565 75.4707 19.6513 75.4707 19.7604V22.6907H74.1649Z" fill="#333333"/>
<path d="M80.0117 22.3545C80.247 22.5786 80.5911 22.6907 81.044 22.6907H81.8204V21.6996H80.9734V19.1571H81.891V18.166H80.9734V16.9422H79.8V17.6834C79.8 17.8385 79.7677 17.9592 79.703 18.0454C79.6383 18.1258 79.5177 18.166 79.3412 18.166H79.0148V19.1571H79.6677V21.3721C79.6677 21.803 79.7824 22.1305 80.0117 22.3545Z" fill="#333333"/>
<path fill-rule="evenodd" clip-rule="evenodd" d="M52.3942 25.2934H55.3851C55.8968 25.2934 56.2939 25.4342 56.5762 25.7157C56.8644 25.9972 57.0085 26.3707 57.0085 26.8361C57.0085 27.0659 56.9762 27.2613 56.9114 27.4221C56.8526 27.583 56.7703 27.7152 56.6644 27.8186C56.5644 27.922 56.4438 27.9996 56.3027 28.0513C56.1674 28.0972 56.0204 28.1231 55.8616 28.1288V28.1806C56.0086 28.1806 56.1615 28.2064 56.3203 28.2581C56.485 28.3098 56.635 28.3931 56.7703 28.508C56.9056 28.6172 57.0173 28.7609 57.1056 28.939C57.1997 29.1171 57.2467 29.3354 57.2467 29.594C57.2467 29.8295 57.2055 30.0536 57.1232 30.2662C57.0467 30.473 56.9379 30.654 56.7968 30.8092C56.6556 30.9643 56.488 31.0878 56.2939 31.1797C56.0998 31.2659 55.888 31.309 55.6586 31.309H52.3942V25.2934ZM53.7353 30.2059H55.2793C55.4557 30.2059 55.5939 30.1599 55.6939 30.068C55.7998 29.9703 55.8527 29.8353 55.8527 29.6629V29.3699C55.8527 29.1975 55.7998 29.0654 55.6939 28.9734C55.5939 28.8758 55.4557 28.8269 55.2793 28.8269H53.7353V30.2059ZM53.7353 27.7583H55.0675C55.244 27.7583 55.3822 27.7094 55.4822 27.6117C55.5822 27.5141 55.6322 27.379 55.6322 27.2067V26.9481C55.6322 26.7758 55.5822 26.6407 55.4822 26.5431C55.3822 26.4454 55.244 26.3966 55.0675 26.3966H53.7353V27.7583Z" fill="#333333"/>
<path fill-rule="evenodd" clip-rule="evenodd" d="M61.0404 31.0936C61.1992 31.2372 61.3962 31.309 61.6315 31.309H62.355V30.3179H61.9227V28.3357C61.9227 27.7956 61.758 27.3848 61.4286 27.1033C61.0992 26.8217 60.6051 26.681 59.9464 26.681C59.4582 26.681 59.07 26.7585 58.7818 26.9137C58.4995 27.063 58.2642 27.2728 58.076 27.5428L58.8524 28.215C58.9524 28.0771 59.0788 27.9536 59.2317 27.8444C59.3847 27.7353 59.5905 27.6807 59.8493 27.6807C60.1258 27.6807 60.3228 27.7468 60.4404 27.8789C60.5581 28.0053 60.6169 28.1777 60.6169 28.396V28.6804H59.8846C59.2729 28.6804 58.7877 28.7982 58.4289 29.0338C58.076 29.2636 57.8995 29.6169 57.8995 30.0938C57.8995 30.4903 58.023 30.8091 58.2701 31.0505C58.5171 31.2918 58.873 31.4124 59.3376 31.4124C59.6905 31.4124 59.9876 31.3377 60.2287 31.1884C60.4699 31.0332 60.6257 30.8092 60.6963 30.5161H60.7492C60.7904 30.7574 60.8875 30.9499 61.0404 31.0936ZM60.3787 30.3869C60.2258 30.4788 60.0405 30.5247 59.8229 30.5247C59.6288 30.5247 59.4788 30.4874 59.3729 30.4127C59.267 30.3323 59.2141 30.2087 59.2141 30.0421V29.9128C59.2141 29.5739 59.47 29.4044 59.9817 29.4044H60.6169V29.9387C60.6169 30.1455 60.5375 30.2949 60.3787 30.3869Z" fill="#333333"/>
<path d="M63.2314 31.309V26.7844H64.5371V27.5514H64.5901C64.6724 27.3158 64.8165 27.1119 65.0224 26.9395C65.2282 26.7671 65.5135 26.681 65.8782 26.681C66.3546 26.681 66.7134 26.8361 66.9545 27.1463C67.2016 27.4566 67.3251 27.899 67.3251 28.4736V31.309H66.0193V28.577C66.0193 28.284 65.9723 28.0685 65.8782 27.9306C65.7841 27.787 65.6164 27.7152 65.3753 27.7152C65.2694 27.7152 65.1665 27.7295 65.0665 27.7583C64.9665 27.7812 64.8753 27.8215 64.793 27.8789C64.7165 27.9364 64.6548 28.0082 64.6077 28.0944C64.5607 28.1748 64.5371 28.2696 64.5371 28.3788V31.309H63.2314Z" fill="#333333"/>
<path d="M69.7928 24.9314H68.4871V31.309H69.7928V30.0335L70.3751 29.3957L71.4162 31.309H72.969L71.2486 28.5167L72.7925 26.7844H71.3456L70.4192 27.8617L69.8458 28.6977H69.7928V24.9314Z" fill="#333333"/>
<path d="M54.9616 35.0752V39.9274H53.6206V35.0752H51.9531V33.9118H56.6291V35.0752H54.9616Z" fill="#333333"/>
<path d="M57.0796 35.4027V39.9274H58.3854V37.2815C58.3854 37.0172 58.4766 36.8363 58.6589 36.7386C58.8471 36.6409 59.1324 36.5921 59.5147 36.5921H59.8411V35.4027H59.6117C59.4294 35.4027 59.2706 35.4315 59.1353 35.4889C59 35.5406 58.8824 35.6124 58.7824 35.7044C58.6883 35.7963 58.6118 35.9026 58.553 36.0233C58.4942 36.1382 58.453 36.2588 58.4295 36.3852H58.3854V35.4027H57.0796Z" fill="#333333"/>
<path fill-rule="evenodd" clip-rule="evenodd" d="M63.9492 39.9274C63.7139 39.9274 63.5169 39.8555 63.3581 39.7119C63.2051 39.5683 63.1081 39.3758 63.0669 39.1345H63.014C62.9434 39.4275 62.7875 39.6516 62.5464 39.8067C62.3052 39.9561 62.0082 40.0308 61.6553 40.0308C61.1906 40.0308 60.8348 39.9101 60.5877 39.6688C60.3407 39.4275 60.2172 39.1086 60.2172 38.7122C60.2172 38.2353 60.3937 37.8819 60.7466 37.6521C61.1053 37.4166 61.5906 37.2988 62.2023 37.2988H62.9346V37.0144C62.9346 36.796 62.8758 36.6237 62.7581 36.4973C62.6405 36.3651 62.4435 36.299 62.167 36.299C61.9082 36.299 61.7023 36.3536 61.5494 36.4628C61.3965 36.572 61.27 36.6955 61.17 36.8334L60.3937 36.1611C60.5819 35.8911 60.8171 35.6814 61.0995 35.532C61.3877 35.3769 61.7759 35.2993 62.2641 35.2993C62.9228 35.2993 63.4169 35.4401 63.7463 35.7216C64.0756 36.0031 64.2403 36.414 64.2403 36.954V38.9363H64.6726V39.9274H63.9492ZM62.1405 39.1431C62.3582 39.1431 62.5434 39.0971 62.6964 39.0052C62.8552 38.9133 62.9346 38.7639 62.9346 38.5571V38.0227H62.2993C61.7876 38.0227 61.5318 38.1922 61.5318 38.5312V38.6605C61.5318 38.8271 61.5847 38.9506 61.6906 39.0311C61.7965 39.1058 61.9464 39.1431 62.1405 39.1431Z" fill="#333333"/>
<path d="M65.549 35.4027V39.9274H66.8548V36.9971C66.8548 36.888 66.8783 36.7932 66.9254 36.7127C66.9724 36.6265 67.0342 36.5547 67.1107 36.4973C67.193 36.4398 67.2842 36.3996 67.3842 36.3766C67.4842 36.3479 67.5871 36.3335 67.693 36.3335C67.9341 36.3335 68.1017 36.4053 68.1959 36.549C68.29 36.6869 68.337 36.9023 68.337 37.1954V39.9274H69.6428V37.0919C69.6428 36.5174 69.5193 36.075 69.2722 35.7647C69.0311 35.4544 68.6723 35.2993 68.1959 35.2993C67.8312 35.2993 67.5459 35.3855 67.3401 35.5579C67.1342 35.7302 66.9901 35.9342 66.9077 36.1698H66.8548V35.4027H65.549Z" fill="#333333"/>
<path d="M72.3752 40.0308C71.9282 40.0308 71.5517 39.9618 71.2459 39.824C70.94 39.6803 70.6665 39.4792 70.4254 39.2207L71.1929 38.4622C71.3576 38.6404 71.54 38.7811 71.7399 38.8845C71.9399 38.988 72.1664 39.0397 72.4193 39.0397C72.6781 39.0397 72.8575 39.0023 72.9575 38.9276C73.0575 38.8472 73.1075 38.7409 73.1075 38.6088C73.1075 38.3962 72.9516 38.2698 72.6399 38.2296L72.137 38.1692C71.0959 38.0428 70.5754 37.5774 70.5754 36.7731C70.5754 36.5547 70.6165 36.3565 70.6989 36.1784C70.7871 35.9945 70.9077 35.8394 71.0606 35.713C71.2194 35.5808 71.4076 35.4803 71.6253 35.4114C71.8488 35.3367 72.0987 35.2993 72.3752 35.2993C72.6163 35.2993 72.8281 35.3165 73.0104 35.351C73.1986 35.3798 73.3633 35.4257 73.5045 35.4889C73.6515 35.5464 73.7839 35.6211 73.9015 35.713C74.025 35.7992 74.1456 35.8969 74.2632 36.006L73.5133 36.7558C73.3663 36.6122 73.1986 36.5001 73.0104 36.4197C72.8281 36.3335 72.6399 36.2904 72.4458 36.2904C72.2223 36.2904 72.0634 36.3249 71.9693 36.3938C71.8752 36.4628 71.8282 36.5547 71.8282 36.6696C71.8282 36.7903 71.8605 36.8851 71.9252 36.954C71.9958 37.0172 72.1252 37.0632 72.3134 37.0919L72.834 37.1609C73.8515 37.293 74.3603 37.7469 74.3603 38.5226C74.3603 38.7409 74.3132 38.942 74.2191 39.1259C74.125 39.3097 73.9897 39.4706 73.8133 39.6085C73.6427 39.7406 73.4339 39.8441 73.1869 39.9188C72.9457 39.9934 72.6751 40.0308 72.3752 40.0308Z" fill="#333333"/>
<path d="M74.8012 36.3938H75.4541V39.9274H76.7598V36.3938H77.6862V35.4027H76.7598V34.5409H77.6862V33.5498H76.8392C76.3863 33.5498 76.0423 33.6618 75.807 33.8859C75.5717 34.1042 75.4541 34.4317 75.4541 34.8684V35.4027H74.8012V36.3938Z" fill="#333333"/>
<path fill-rule="evenodd" clip-rule="evenodd" d="M80.3103 40.0308C79.9574 40.0308 79.6427 39.9762 79.3662 39.867C79.0898 39.7521 78.8545 39.5941 78.6604 39.393C78.4722 39.1862 78.3281 38.9363 78.2281 38.6432C78.134 38.3502 78.087 38.0227 78.087 37.6607C78.087 37.3045 78.134 36.9828 78.2281 36.6955C78.3222 36.4025 78.4604 36.1525 78.6428 35.9457C78.831 35.7389 79.0604 35.5808 79.331 35.4717C79.6015 35.3568 79.9103 35.2993 80.2573 35.2993C80.6397 35.2993 80.9661 35.3625 81.2367 35.4889C81.5131 35.6153 81.7366 35.7848 81.9072 35.9974C82.0836 36.21 82.2101 36.457 82.2865 36.7386C82.3689 37.0144 82.4101 37.3045 82.4101 37.609V37.9882H79.4368V38.0572C79.4368 38.356 79.5192 38.5944 79.6839 38.7725C79.8486 38.9449 80.1073 39.0311 80.4603 39.0311C80.7308 39.0311 80.9514 38.9794 81.122 38.8759C81.2925 38.7668 81.4513 38.6375 81.5984 38.4881L82.2513 39.281C82.0454 39.5166 81.7748 39.7004 81.4396 39.8326C81.1102 39.9647 80.7338 40.0308 80.3103 40.0308ZM80.2838 36.2387C80.0191 36.2387 79.8103 36.3249 79.6574 36.4973C79.5103 36.6639 79.4368 36.888 79.4368 37.1695V37.2384H81.0602V37.1609C81.0602 36.8851 80.9955 36.6639 80.8661 36.4973C80.7426 36.3249 80.5485 36.2387 80.2838 36.2387Z" fill="#333333"/>
<path d="M83.3322 35.4027V39.9274H84.638V37.2815C84.638 37.0172 84.7292 36.8363 84.9115 36.7386C85.0997 36.6409 85.385 36.5921 85.7673 36.5921H86.0937V35.4027H85.8643C85.682 35.4027 85.5232 35.4315 85.3879 35.4889C85.2526 35.5406 85.135 35.6124 85.035 35.7044C84.9409 35.7963 84.8644 35.9026 84.8056 36.0233C84.7468 36.1382 84.7056 36.2588 84.6821 36.3852H84.638V35.4027H83.3322Z" fill="#333333"/>
</svg>

<svg width="95" height="58" fill="none" xmlns="http://www.w3.org/2000/svg"><path d="M22.083 33.885v1.72h-6.596l-1.162-1.72h7.758Zm0-4.022v1.73h-9.305l-1.162-1.721 10.467-.01Zm0-4.022v1.72H10.068l-1.162-1.72h13.177Z" fill="#999"/><path fill-rule="evenodd" clip-rule="evenodd" d="m45.474 21.895-11.409-5.22-11.41 5.233a.887.887 0 0 0-.536.826v.337c0 .49.407.888.91.888h.908v.936a.92.92 0 0 0 .909.888h.909v9.13h-.91a.921.921 0 0 0-.908.888v.914h-.909a.898.898 0 0 0-.909.888v1.82h23.896v-1.82a.921.921 0 0 0-.936-.888h-.909v-.936a.921.921 0 0 0-.931-.888h-.909v-9.14h.909c.506 0 .92-.393.931-.887v-.914h.91a.92.92 0 0 0 .66-.25.879.879 0 0 0 .275-.638v-.328a.887.887 0 0 0-.54-.84Zm-7.733 3.888h1.84v9.108h-1.84v-9.108Zm-4.576 0h1.818v9.108h-1.818v-9.108Zm-4.593 0h1.817v9.108h-1.817v-9.108Z" fill="#333"/><path d="M52.156 22.69v-1.042h.794v-3.93h-.794v-1.043h2.93v1.043h-.795v3.93h.794v1.043h-2.929ZM56.132 22.69v-4.524h1.306v.767h.053c.082-.235.226-.44.432-.612s.491-.258.856-.258c.476 0 .835.155 1.076.465.247.31.37.753.37 1.327v2.836H58.92v-2.732c0-.293-.047-.509-.141-.647-.094-.143-.262-.215-.503-.215-.106 0-.209.014-.309.043a.777.777 0 0 0-.273.12.663.663 0 0 0-.186.216.554.554 0 0 0-.07.284v2.93h-1.306ZM61.829 22.587c.306.138.682.207 1.129.207.3 0 .57-.037.812-.112.247-.075.455-.178.626-.31.177-.138.312-.299.406-.483.094-.184.141-.385.141-.603 0-.776-.509-1.23-1.526-1.362l-.52-.069c-.189-.029-.318-.075-.389-.138a.399.399 0 0 1-.097-.284c0-.115.047-.207.141-.276.094-.069.253-.103.477-.103.194 0 .382.043.564.129.188.08.356.192.503.336l.75-.75a3.35 3.35 0 0 0-.362-.293 1.566 1.566 0 0 0-.397-.224 1.914 1.914 0 0 0-.494-.138 3.45 3.45 0 0 0-.635-.051 2.36 2.36 0 0 0-.75.112c-.218.069-.406.17-.565.301a1.357 1.357 0 0 0-.361.466 1.4 1.4 0 0 0-.124.594c0 .805.52 1.27 1.562 1.396l.503.06c.311.041.467.168.467.38 0 .132-.05.238-.15.319-.1.075-.28.112-.538.112-.253 0-.48-.052-.68-.155a1.985 1.985 0 0 1-.546-.422l-.768.758c.241.258.515.46.82.603ZM67.388 22.69c-.453 0-.797-.111-1.032-.335-.23-.224-.344-.552-.344-.983v-2.215h-.653v-.991h.326c.177 0 .297-.04.362-.12a.592.592 0 0 0 .097-.363v-.74h1.173v1.223h.918v.991h-.918V21.7h.847v.99h-.776Z" fill="#333"/><path fill-rule="evenodd" clip-rule="evenodd" d="M71.974 22.475a.849.849 0 0 0 .591.216h.724V21.7h-.433v-1.983c0-.54-.164-.95-.494-1.232-.33-.282-.823-.422-1.482-.422-.488 0-.876.077-1.165.232a1.98 1.98 0 0 0-.706.63l.777.672c.1-.138.226-.262.38-.37.152-.11.358-.165.617-.165.276 0 .473.066.591.199.118.126.177.298.177.517v.284h-.733c-.611 0-1.097.118-1.456.353-.352.23-.529.584-.529 1.06 0 .397.124.716.37.957.248.241.603.362 1.068.362.353 0 .65-.075.891-.224.241-.155.397-.38.468-.672h.053a.995.995 0 0 0 .291.577Zm-.662-.707a1.06 1.06 0 0 1-.556.138c-.194 0-.344-.037-.45-.112-.105-.08-.158-.204-.158-.37v-.13c0-.338.255-.508.767-.508h.635v.534c0 .207-.079.357-.238.448Z" fill="#333"/><path d="M74.165 22.69v-4.524h1.306v.767h.053c.082-.235.226-.44.432-.612s.491-.258.856-.258c.476 0 .835.155 1.076.465.247.31.37.753.37 1.327v2.836h-1.305v-2.732c0-.293-.047-.509-.141-.647-.094-.143-.262-.215-.503-.215-.106 0-.209.014-.309.043a.778.778 0 0 0-.273.12.663.663 0 0 0-.186.216.553.553 0 0 0-.07.284v2.93h-1.306ZM80.012 22.355c.235.224.58.336 1.032.336h.776V21.7h-.847v-2.543h.918v-.991h-.918v-1.224H79.8v.741a.592.592 0 0 1-.097.362c-.065.08-.185.121-.362.121h-.326v.991h.653v2.215c0 .431.114.759.344.983Z" fill="#333"/><path fill-rule="evenodd" clip-rule="evenodd" d="M52.394 25.293h2.991c.512 0 .909.141 1.191.423.288.281.432.655.432 1.12 0 .23-.032.425-.097.586-.058.161-.14.293-.247.397a.95.95 0 0 1-.361.232 1.538 1.538 0 0 1-.441.078v.052c.147 0 .3.025.458.077.165.052.315.135.45.25.136.11.247.253.336.431.094.178.14.396.14.655 0 .235-.04.46-.123.672a1.596 1.596 0 0 1-.83.913c-.193.087-.405.13-.634.13h-3.265v-6.016Zm1.341 4.913h1.544c.177 0 .315-.046.415-.138a.524.524 0 0 0 .159-.405v-.293c0-.172-.053-.305-.16-.397-.1-.097-.237-.146-.414-.146h-1.544v1.379Zm0-2.448h1.333c.176 0 .314-.049.414-.146a.54.54 0 0 0 .15-.405v-.259a.54.54 0 0 0-.15-.405c-.1-.098-.238-.146-.414-.146h-1.333v1.361ZM61.04 31.094a.849.849 0 0 0 .592.215h.723v-.991h-.432v-1.982c0-.54-.165-.951-.494-1.233-.33-.281-.824-.422-1.483-.422-.488 0-.876.078-1.164.233a1.98 1.98 0 0 0-.706.629l.776.672c.1-.138.227-.261.38-.37.153-.11.358-.164.617-.164.277 0 .474.066.591.198.118.126.177.299.177.517v.284h-.732c-.612 0-1.097.118-1.456.354-.353.23-.53.583-.53 1.06 0 .396.124.715.371.956.247.242.603.362 1.068.362.352 0 .65-.074.89-.224.242-.155.398-.379.468-.672h.053a.996.996 0 0 0 .291.578Zm-.661-.707a1.06 1.06 0 0 1-.556.138c-.194 0-.344-.038-.45-.112-.106-.08-.159-.204-.159-.37v-.13c0-.34.256-.509.768-.509h.635v.535c0 .206-.08.356-.238.448Z" fill="#333"/><path d="M63.231 31.309v-4.525h1.306v.767h.053c.082-.235.227-.44.432-.611.206-.173.491-.259.856-.259.477 0 .835.155 1.076.465.248.31.371.753.371 1.328v2.835H66.02v-2.732c0-.293-.047-.509-.14-.646-.095-.144-.263-.216-.504-.216a1.11 1.11 0 0 0-.308.043.777.777 0 0 0-.274.12.664.664 0 0 0-.185.216.554.554 0 0 0-.07.285v2.93H63.23ZM69.793 24.931h-1.306v6.378h1.306v-1.276l.582-.637 1.041 1.913h1.553l-1.72-2.792 1.544-1.733h-1.447l-.927 1.078-.573.836h-.053V24.93ZM54.962 35.075v4.852H53.62v-4.852h-1.668v-1.163h4.676v1.163h-1.667ZM57.08 35.403v4.524h1.305v-2.645c0-.265.092-.446.274-.543.188-.098.473-.147.856-.147h.326v-1.19h-.23c-.182 0-.34.03-.476.087a1.09 1.09 0 0 0-.353.215 1.32 1.32 0 0 0-.353.68h-.044v-.981H57.08Z" fill="#333"/><path fill-rule="evenodd" clip-rule="evenodd" d="M63.95 39.927a.849.849 0 0 1-.592-.215.995.995 0 0 1-.291-.578h-.053c-.07.294-.227.518-.468.673-.24.15-.538.224-.89.224-.465 0-.821-.12-1.068-.362-.247-.241-.37-.56-.37-.957 0-.477.176-.83.529-1.06.358-.235.844-.353 1.455-.353h.733v-.285c0-.218-.06-.39-.177-.517-.117-.132-.315-.198-.591-.198-.259 0-.465.055-.618.164a1.64 1.64 0 0 0-.379.37l-.776-.672c.188-.27.423-.48.706-.629.288-.155.676-.233 1.164-.233.659 0 1.153.141 1.482.423.33.281.494.692.494 1.232v1.982h.433v.991h-.724Zm-1.81-.784c.218 0 .403-.046.556-.138.16-.092.239-.241.239-.448v-.534h-.636c-.511 0-.767.17-.767.508v.13c0 .166.053.29.159.37.105.075.255.112.45.112Z" fill="#333"/><path d="M65.549 35.403v4.524h1.306v-2.93c0-.109.023-.204.07-.284a.662.662 0 0 1 .186-.216.777.777 0 0 1 .273-.12c.1-.03.203-.044.309-.044.241 0 .409.072.503.216.094.138.141.353.141.646v2.732h1.306v-2.835c0-.575-.124-1.017-.37-1.327-.242-.31-.6-.466-1.077-.466-.365 0-.65.087-.856.259-.206.172-.35.376-.432.612h-.053v-.767h-1.306ZM72.375 40.03c-.447 0-.823-.068-1.13-.206a2.666 2.666 0 0 1-.82-.603l.768-.759c.165.178.347.32.547.422.2.104.426.156.68.156.258 0 .438-.038.537-.112.1-.08.15-.187.15-.32 0-.212-.155-.338-.467-.378l-.503-.06c-1.041-.127-1.562-.593-1.562-1.397a1.4 1.4 0 0 1 .124-.595c.088-.183.209-.339.362-.465a1.65 1.65 0 0 1 .564-.302c.224-.074.474-.112.75-.112.241 0 .453.017.635.052.189.029.353.075.494.138.147.057.28.132.397.224.124.086.245.184.362.293l-.75.75a1.63 1.63 0 0 0-.503-.336 1.307 1.307 0 0 0-.564-.13c-.224 0-.383.035-.477.104a.325.325 0 0 0-.14.276c0 .12.032.215.096.284.07.063.2.11.388.138l.521.069c1.017.132 1.526.586 1.526 1.362 0 .218-.047.419-.14.603-.095.184-.23.345-.407.483a1.92 1.92 0 0 1-.626.31 2.742 2.742 0 0 1-.812.112ZM74.801 36.394h.653v3.533h1.306v-3.533h.926v-.991h-.926v-.862h.926v-.991h-.847c-.453 0-.797.112-1.032.336-.235.218-.353.546-.353.982v.535h-.653v.99Z" fill="#333"/><path fill-rule="evenodd" clip-rule="evenodd" d="M80.31 40.03c-.353 0-.667-.054-.944-.163a2.073 2.073 0 0 1-.706-.474 2.11 2.11 0 0 1-.432-.75 3.204 3.204 0 0 1-.141-.982c0-.357.047-.678.141-.965.094-.293.232-.543.415-.75.188-.207.417-.365.688-.474.27-.115.58-.173.926-.173.383 0 .71.063.98.19.276.126.5.296.67.508.177.213.303.46.38.742.082.275.123.566.123.87v.38h-2.973v.068c0 .299.082.537.247.715.165.173.423.26.776.26.27 0 .491-.053.662-.156.17-.11.33-.238.476-.388l.653.793c-.206.236-.476.42-.811.552-.33.132-.706.198-1.13.198Zm-.026-3.791c-.265 0-.474.086-.627.258-.147.167-.22.391-.22.672v.07h1.623v-.078c0-.276-.064-.497-.194-.664-.123-.172-.317-.258-.582-.258Z" fill="#333"/><path d="M83.332 35.403v4.524h1.306v-2.645c0-.265.091-.446.273-.543.189-.098.474-.147.856-.147h.327v-1.19h-.23c-.182 0-.34.03-.476.087a1.09 1.09 0 0 0-.353.215 1.32 1.32 0 0 0-.353.68h-.044v-.981h-1.306Z" fill="#333"/></svg>
